X: 29609
T: North Clare, The
R: jig
M: 6/8
K: Gmajor
|:A|B3 BAG|F2 d d^cd|B2 g gfg|eag fed|
B^AB B=AG|F2 d d^cd|e^de f^ef|a3 g2:|
|:d|gfg b^ab|gfg b^ab|fag fed|f/g/ag fed|
gfg b2 b|gfg b2 d|f/g/ag f^ef|a3 g2:|

